symbols/web/forms_add_on/materialsymbolsoutlined/forms_add_on_wght600_24px.svg

<svg xmlns="http://www.w3.org/2000/svg" height="24" width="24"><path d="M15.675 21.3v-3h-3v-2.65h3v-3h2.65v3h3v2.65h-3v3ZM2.55 18.975v-2.65H5.2v2.65Zm4.65 0v-2.65h3.525q-.025.7.038 1.338.062.637.312 1.312Zm-4.65-4.45v-2.65H5.2v2.65Zm4.65 0v-2.65h6.05q-.675.525-1.188 1.2-.512.675-.837 1.45Zm-4.65-4.4v-2.65H5.2v2.65Zm4.65 0v-2.65h12.25v2.65Zm-4.65-4.45v-2.65H5.2v2.65Zm4.65 0v-2.65h12.25v2.65Z"/></svg>

<svg xmlns="http://www.w3.org/2000/svg" height="24" width="24"><path d="M19.45 5.675H7.2V3.025H19.45ZM7.2 10.125V7.475H19.45V10.125ZM7.2 14.525V11.875H13.25Q12.575 12.4 12.062 13.075Q11.55 13.75 11.225 14.525ZM7.2 16.325H10.725Q10.7 16.5 10.688 16.663Q10.675 16.825 10.675 17Q10.675 17.525 10.775 18.025Q10.875 18.525 11.075 18.975H7.2ZM15.675 21.3V18.3H12.675V15.65H15.675V12.65H18.325V15.65H21.325V18.3H18.325V21.3ZM5.2 5.675H2.55V3.025H5.2ZM2.55 10.125V7.475H5.2V10.125ZM2.55 14.525V11.875H5.2V14.525ZM2.55 16.325H5.2V18.975H2.55Z"/></svg>
